svg/OSM-icons/man_made #fabe0b °373737 !label=enman made,deKünstliches/22086;man_made=windmill;!name=;!windmill..vanes=;!label=enwindmill,deWindmühle.svg

<svg xmlns="http://www.w3.org/2000/svg" viewBox="0 0 580 580" enable-background="new 0 0 580 580"><path fill="#111" stroke="#eee" stroke-width="3.408" d="m66.28 1.768c-41.34 0-64.57 21.371-64.57 65.04v450.12c0 40.844 20.894 62.23 62.19 62.23h452.02c41.31 0 62.23-20.316 62.23-62.23v-450.12c0-42.601-20.923-65.04-63.52-65.04-.003 0-448.49-.143-448.35 0z"/><g fill="#fff"><path opacity=".5" d="m182.5 539.66l55.55-326.72 52.31-31.32 51.17 32.15c0 0 46.844 331.2 41.4 328.54-5.447-2.656-199.33 1.328-200.42-2.656"/><g stroke="#fff" stroke-linejoin="round" stroke-linecap="round" stroke-width="24.6"><path d="m76.08 94.48l60.713-56.814 147.12 200.59-18.742 18.13-189.09-161.9z"/><path d="m503.92 94.48l-60.713-56.814-147.12 200.59 18.742 18.13 189.09-161.9z"/><path d="m503.92 419.57l-60.713 56.815-147.12-200.59 18.742-18.13 189.09 161.9z"/><path d="m76.08 419.57l60.713 56.815 147.12-200.59-18.742-18.13-189.09 161.9z"/></g></g></svg>

<?xml version="1.0" encoding="utf-8"?>
<!-- Generator: Adobe Illustrator 15.0.0, SVG Export Plug-In . SVG Version: 6.00 Build 0)  -->
<!DOCTYPE svg PUBLIC "-//W3C//DTD SVG 1.1//EN" "http://www.w3.org/Graphics/SVG/1.1/DTD/svg11.dtd">
<svg version="1.1" xmlns="http://www.w3.org/2000/svg" xmlns:xlink="http://www.w3.org/1999/xlink" x="0px" y="0px" width="580px"
	 height="580px" viewBox="0 0 580 580" enable-background="new 0 0 580 580" xml:space="preserve">
<g id="Layer_2">
	<g id="g1327">
		<path id="path1329" fill="#111111" stroke="#EEEEEE" stroke-width="3.408" d="M66.275,1.768
			c-41.335,0-64.571,21.371-64.571,65.036v450.123c0,40.844,20.894,62.229,62.192,62.229H515.92
			c41.307,0,62.229-20.316,62.229-62.229V66.804c0-42.601-20.923-65.036-63.522-65.036C514.624,1.768,66.133,1.625,66.275,1.768z"/>
	</g>
</g>
<g id="svg2" inkscape:output_extension="org.inkscape.output.svg.inkscape" inkscape:version="0.46" sodipodi:docname="waste_bin.svg" sodipodi:version="0.32" xmlns:inkscape="http://www.inkscape.org/namespaces/inkscape" xmlns:rdf="http://www.w3.org/1999/02/22-rdf-syntax-ns#" xmlns:svg="http://www.w3.org/2000/svg" xmlns:sodipodi="http://sodipodi.sourceforge.net/DTD/sodipodi-0.dtd" xmlns:cc="http://creativecommons.org/ns#" xmlns:dc="http://purl.org/dc/elements/1.1/">
	<g>
		<path id="path3457" sodipodi:nodetypes="ccccsc" opacity="0.5" fill="#FFFFFF" enable-background="new    " d="M182.505,539.665
			l55.55-326.723l52.306-31.318l51.165,32.153c0,0,46.844,331.201,41.398,328.544C377.477,539.665,183.594,543.649,182.505,539.665z
			"/>
		
			<path id="path4180" sodipodi:nodetypes="ccccc" fill="#FFFFFF" stroke="#FFFFFF" stroke-width="24.6" stroke-linecap="round" stroke-linejoin="round" d="
			M76.082,94.477l60.713-56.814L283.918,238.25l-18.742,18.131L76.082,94.477z"/>
		
			<path id="path4188" sodipodi:nodetypes="ccccc" fill="#FFFFFF" stroke="#FFFFFF" stroke-width="24.6" stroke-linecap="round" stroke-linejoin="round" d="
			M503.918,94.477l-60.713-56.814L296.082,238.25l18.742,18.131L503.918,94.477z"/>
		
			<path id="path4194" sodipodi:nodetypes="ccccc" fill="#FFFFFF" stroke="#FFFFFF" stroke-width="24.6" stroke-linecap="round" stroke-linejoin="round" d="
			M503.918,419.566l-60.713,56.815L296.082,275.793l18.742-18.131L503.918,419.566z"/>
		
			<path id="path4196" sodipodi:nodetypes="ccccc" fill="#FFFFFF" stroke="#FFFFFF" stroke-width="24.6" stroke-linecap="round" stroke-linejoin="round" d="
			M76.082,419.566l60.713,56.815l147.124-200.588l-18.742-18.131L76.082,419.566z"/>
	</g>
</g>
</svg>
